X:530
T: Sixiang qi
N: C0449
O: China,Taiwan, Hengchun
S: IV, 634]
N: wird auf Dialekt gesungen (Sued-Fujian). Auch von Leuten, die in der
N: Ming-Dynastie nach Taiwan kamen und damit an ihre Heimat denken.
R: Qingge]
M: 2/4
L: 1/16
K: C
G2D2c2Ac | d6e2 |
G4D4 | e2ded2c2 | A3cG2EG | A8 |
A4c2A2 | c2ded2cA | G2G4c2 | AcAGD2DE | G8 |
G2AcA2G2 | D4c2e2 | d3edcAc | A4G2AG | D8 |
A4c2A2 | c2ded2cA | G2G4c2 | AcAGD2E2 | G8

@@@ Tune index: 6531
